src/images/icons/add.svg

<?xml version="1.0" encoding="utf-8"?>
<!-- Generated by IcoMoon.io -->
<!DOCTYPE svg PUBLIC "-//W3C//DTD SVG 1.1//EN" "http://www.w3.org/Graphics/SVG/1.1/DTD/svg11.dtd">
<svg version="1.1" xmlns="http://www.w3.org/2000/svg" xmlns:xlink="http://www.w3.org/1999/xlink" width="24" height="24" viewBox="0 0 24 24">
<path fill="#444" d="M12 20.016q3.281 0 5.648-2.367t2.367-5.648-2.367-5.648-5.648-2.367-5.648 2.367-2.367 5.648 2.367 5.648 5.648 2.367zM12 2.016q4.125 0 7.055 2.93t2.93 7.055-2.93 7.055-7.055 2.93-7.055-2.93-2.93-7.055 2.93-7.055 7.055-2.93zM12.984 6.984v4.031h4.031v1.969h-4.031v4.031h-1.969v-4.031h-4.031v-1.969h4.031v-4.031h1.969z"></path>
</svg>

<svg xmlns="http://www.w3.org/2000/svg" width="24" height="24" viewBox="0 0 24 24">
    <path d="M12 20.027q3.286 0 5.656-2.37 2.371-2.371 2.371-5.657t-2.37-5.656Q15.285 3.973 12 3.973t-5.656 2.37Q3.973 8.715 3.973 12t2.37 5.656Q8.715 20.027 12 20.027zM12 2q4.131 0 7.066 2.934Q22 7.87 22 12t-2.934 7.066Q16.13 22 12 22t-7.066-2.934Q2 16.13 2 12t2.934-7.066Q7.87 2 12 2zm.985 4.975v4.038h4.038v1.971h-4.038v4.038h-1.971v-4.038H6.976v-1.971h4.038V6.975h1.971z" fill="#444"/>
</svg>
